dist/assets/images/about/logo-1.svg

<svg width="95" height="67" viewBox="0 0 95 67" fill="none" xmlns="http://www.w3.org/2000/svg">
<path fill-rule="evenodd" clip-rule="evenodd" d="M8.27327 2.12488H13.2046H58.565C76.2119 2.12488 90.843 15.4432 93.0438 32.5609H74.3779C72.5032 26.2285 66.5937 21.5712 59.6654 21.5712H8.80309H4.15701L0 2.12488H8.27327Z" fill="#0000BD"/>
<path d="M87.6232 1.96098C88.3568 1.26646 89.2942 0.817073 90.3131 0.817073C91.3319 0.817073 92.2693 1.26646 93.0029 1.96098C93.7365 2.73719 94.144 3.59512 94.144 4.73902C94.144 5.76037 93.7365 6.7 93.0029 7.39451C92.2693 8.12988 91.3319 8.53841 90.3131 8.53841C89.2942 8.53841 88.3568 8.12988 87.6232 7.39451C86.8896 6.7 86.4821 5.76037 86.5636 4.73902C86.5228 3.59512 86.9304 2.77805 87.6232 1.96098ZM90.3538 0C89.1312 0 87.99 0.490244 87.0934 1.34817C86.1968 2.2878 85.667 3.39085 85.667 4.73902C85.667 5.96463 86.1561 7.06768 87.0934 7.96646C87.99 8.9061 89.1312 9.31463 90.3538 9.31463C91.658 9.31463 92.7584 8.9061 93.655 7.96646C94.5516 7.06768 94.9999 6.00549 94.9999 4.73902C94.9999 3.39085 94.5516 2.32866 93.655 1.34817C92.7584 0.490244 91.6172 0 90.3538 0Z" fill="#0000BD"/>
<path d="M89.4572 4.3305H90.1092C90.5168 4.3305 90.8021 4.3305 90.8836 4.28965C91.0058 4.24879 91.0874 4.20794 91.1281 4.08538C91.1689 4.00367 91.2096 3.88111 91.2096 3.75855C91.2096 3.59514 91.1689 3.47257 91.0874 3.39087C91.0058 3.30916 90.8836 3.22745 90.7613 3.22745C90.6798 3.22745 90.476 3.22745 90.1092 3.22745H89.4164V4.3305H89.4572ZM88.5605 6.82258V2.45123H90.4353C90.8836 2.45123 91.2504 2.49209 91.4542 2.57379C91.6579 2.6555 91.821 2.77806 91.9432 2.98233C92.0655 3.1866 92.147 3.43172 92.147 3.67684C92.147 4.00367 92.0655 4.28965 91.8617 4.49392C91.6579 4.69818 91.3726 4.8616 91.0059 4.90245C91.2096 5.02501 91.3726 5.14757 91.4949 5.27014C91.6172 5.3927 91.7802 5.63782 91.984 5.96465L92.5138 6.82258H91.4542L90.8021 5.88294C90.5575 5.55611 90.4353 5.31099 90.3538 5.22928C90.2723 5.14757 90.1907 5.06587 90.0685 5.06587C89.987 5.02501 89.8239 5.02501 89.6202 5.02501H89.4572V6.86343H88.5605V6.82258Z" fill="#0000BD"/>
<path d="M56.9349 35.2971H61.5402L59.3394 31.0074H59.2172L56.9349 35.2971ZM54.3266 40.4038H51.1069L57.2202 28.8422H61.2957L67.3682 40.4038H64.1485L62.6813 37.5032H55.8753L54.3266 40.4038ZM39.1657 28.8422H49.0284V31.13H41.8963V40.4038H39.1249V28.8422H39.1657ZM25.798 31.13V34.6843H30.4033C31.0962 34.6843 31.5445 34.5617 31.789 34.2757C32.0335 33.9898 32.1966 33.5404 32.1966 32.8867C32.1966 32.2739 32.0743 31.8245 31.8298 31.5794C31.5445 31.2934 31.0962 31.13 30.4033 31.13H25.798ZM25.798 36.9721V40.3629H23.0267V28.8422H30.8924C32.3596 28.8422 33.3785 29.169 34.0305 29.7818C34.6419 30.3946 34.9679 31.4568 34.9679 32.8867C34.9679 34.3574 34.6419 35.4196 34.0305 36.0324C33.4192 36.6861 32.4003 36.9721 30.9332 36.9721H25.798ZM8.9662 33.5404H15.813V33.0501C15.813 32.1513 15.6908 31.6202 15.4055 31.3751C15.1202 31.13 14.5089 31.0483 13.5715 31.0483H10.0258C9.21073 31.0483 8.68091 31.1709 8.31411 31.416C7.98807 31.6611 7.82505 32.1105 7.82505 32.6824H5.05371C5.05371 31.1709 5.46126 30.1087 6.27636 29.4959C6.9692 29.0056 8.06958 28.7196 9.53677 28.7196H14.1013C15.813 28.7196 16.9542 29.0056 17.6063 29.5776C18.2176 30.1495 18.5436 31.2526 18.5436 32.9276V36.3184C18.5436 37.8709 18.2583 38.933 17.647 39.5459C17.0357 40.1178 15.9353 40.4446 14.3459 40.4446H9.25148C7.58052 40.4446 6.48014 40.1587 5.90957 39.6276C5.339 39.0556 5.09447 37.9934 5.09447 36.441H7.86581C7.86581 37.1355 8.02883 37.5849 8.35487 37.83C8.68091 38.0751 9.25148 38.1568 10.1073 38.1568H13.653C14.4681 38.1568 15.0387 38.0343 15.3647 37.7891C15.7315 37.5032 15.8946 36.9312 15.8946 36.0733V35.5422H8.9662V33.5404Z" fill="#2B2A29"/>
<path fill-rule="evenodd" clip-rule="evenodd" d="M8.27327 67H13.2046H58.565C76.2119 67 90.843 53.6409 93.0438 36.5641H74.3779C72.5032 42.8964 66.5937 47.5537 59.6654 47.5537H8.80309H4.15701L0 67H8.27327Z" fill="#E31E24"/>
</svg>

<svg width="95" height="67" fill="none" xmlns="http://www.w3.org/2000/svg"><path fill-rule="evenodd" clip-rule="evenodd" d="M8.273 2.125h50.292c17.647 0 32.278 13.318 34.479 30.436H74.378c-1.875-6.332-7.784-10.99-14.713-10.99H4.157L0 2.125h8.273z" fill="#0000BD"/><path d="M87.623 1.961c.734-.695 1.671-1.144 2.69-1.144s1.956.45 2.69 1.144c.734.776 1.141 1.634 1.141 2.778a3.618 3.618 0 01-1.141 2.656c-.734.735-1.671 1.143-2.69 1.143s-1.956-.408-2.69-1.143c-.733-.695-1.14-1.635-1.06-2.656-.04-1.144.367-1.961 1.06-2.778zM90.353 0c-1.222 0-2.363.49-3.26 1.348-.896.94-1.426 2.043-1.426 3.391 0 1.226.49 2.329 1.426 3.227.897.94 2.038 1.349 3.26 1.349 1.305 0 2.405-.409 3.302-1.349C94.552 7.068 95 6.006 95 4.74c0-1.348-.448-2.41-1.345-3.39C92.758.49 91.617 0 90.354 0z" fill="#0000BD"/><path d="M89.457 4.33h.652c.408 0 .693 0 .775-.04.122-.041.203-.082.244-.205a.77.77 0 00.082-.326c0-.164-.041-.286-.123-.368-.081-.082-.203-.164-.326-.164h-1.345V4.33h.041zm-.896 2.493V2.45h1.874c.449 0 .815.041 1.02.123a.952.952 0 01.488.408c.123.205.204.45.204.695 0 .327-.082.613-.285.817-.204.204-.49.368-.856.408.204.123.367.246.489.368.122.123.285.368.489.695l.53.858h-1.06l-.652-.94c-.245-.327-.367-.572-.448-.654-.082-.081-.163-.163-.285-.163-.082-.041-.245-.041-.449-.041h-.163v1.838h-.896v-.04z" fill="#0000BD"/><path d="M56.935 35.297h4.605l-2.2-4.29h-.123l-2.282 4.29zm-2.608 5.107h-3.22l6.113-11.562h4.076l6.072 11.562h-3.22l-1.467-2.9h-6.806l-1.548 2.9zM39.166 28.842h9.862v2.288h-7.132v9.274h-2.771V28.842h.04zM25.798 31.13v3.554h4.605c.693 0 1.142-.122 1.386-.408s.408-.736.408-1.39c0-.612-.123-1.062-.367-1.307-.285-.286-.734-.449-1.427-.449h-4.605zm0 5.842v3.39h-2.771v-11.52h7.865c1.468 0 2.487.327 3.139.94.61.613.937 1.675.937 3.105 0 1.47-.326 2.533-.938 3.145-.61.654-1.63.94-3.097.94h-5.135zM8.966 33.54h6.847v-.49c0-.899-.122-1.43-.408-1.675-.285-.245-.896-.327-1.833-.327h-3.546c-.815 0-1.345.123-1.712.368-.326.245-.489.695-.489 1.266H5.054c0-1.511.407-2.573 1.222-3.186.693-.49 1.794-.776 3.26-.776h4.565c1.712 0 2.853.286 3.505.858.612.572.938 1.675.938 3.35v3.39c0 1.553-.286 2.615-.897 3.228-.611.572-1.712.899-3.301.899H9.25c-1.67 0-2.77-.286-3.341-.817-.571-.572-.816-1.635-.816-3.187h2.772c0 .694.163 1.144.489 1.389.326.245.896.327 1.752.327h3.546c.815 0 1.386-.123 1.712-.368.367-.286.53-.858.53-1.716v-.53H8.966V33.54z" fill="#2B2A29"/><path fill-rule="evenodd" clip-rule="evenodd" d="M8.273 67h50.292c17.647 0 32.278-13.36 34.479-30.436H74.378c-1.875 6.332-7.784 10.99-14.713 10.99H4.157L0 67h8.273z" fill="#E31E24"/></svg>
